!!!SOCIAL_FUNCTION: war songs
!!!PDT:	1943
!!!LING_GROUP: Muskogean
!!!LANG: Non-Tone
Specific Region: Oklahoma, California, Mississippi, Louisiana, Texas, Alabama
!!!REG: Southeast
!!!COM: Anon.
!!!OTL: Slacker Song
!!!ODT: <1933//
!!!MPN: Lysander Tubby
!!!MLC: Philadelphia, Mississippi, United States of America
!! Song was recorded in January 1933.
!!!AGN: monody
!!!AMT: irregular
!!!RWG: Transcribed pitches, durations, and meters are only approximate.
**kern
*ICvox
*Imale
*clefF4
*k[f#c#g#]
*M2/4
*MM84
=1-
4r
8r
8A
=2
4F#
4A
=3
4A
8F#
8F#
*M3/8
=4
4F#
8E
*M5/8
=5
4.E
4E
*M7/8
=6
(8F#+
8E)
8E
8E+
8E
8r
8B
*M2/4
=7
4B
4r
=8
4A
8F#
8F#
*M3/8
=9
8F#
8r
8E
*M5/8
=10
4.E
4E
*M7/8
=11
(8.F#
16E)
8E
8F#
8E
8r
8A
*M2/4
=12
4F#
4B
=13
4A
8F#
8F#
*M3/8
=14
8F#
8r
8E
*M5/8
=15
4E
8r
4E
*M2/4
=16
(8.F#
16E)
8E
8F#
=17
8E
8r
8E
8E
=18
8.B
16B
4B
=19
4A
8F#
8E
=20
4E
8F#
8E
*M5/8
=21
8.B
16B
4B
8A
*M3/8
=22
8F#
8r
8B
*M2/4
*MM76
=23
8.B
16A
4F#
=24
8.A
16A
8.A
16F#
=25
4F#
4A
=26
16F#
8.F#
8F#
8r
*MM84
=27
8E
[8E
8E]
8E
=28
4E
(8.F#+
16E)
*M5/8
=29
8E
8E
4E
8A
*M2/4
=30
4F#
4B
=31
4A
8F#
8F#
*M3/8
=32
8F#
8r
8E
*M5/8
=33
4E
8r
4E
*M2/4
=34
(8.F#+
16E)
8E
8F#
=35
4E
8r
8A
!! repeated section
4F#
4A
=36
4A
8F#
8F#
*M3/8
=37
4F#
8E
*M5/8
=38
4.E
4E
*M7/8
=39
(8F#+
8E)
8E
8E+
8E
8r
8B
*M2/4
=40
4B
4r
=41
4A
8F#
8F#
*M3/8
=42
8F#
8r
8E
*M5/8
=43
4.E
4E
*M7/8
=44
(8.F#
16E)
8E
8F#
8E
8r
8A
*M2/4
=45
4F#
4B
=46
4A
8F#
8F#
*M3/8
=47
8F#
8r
8E
*M5/8
=48
4E
8r
4E
*M2/4
=49
(8.F#
16E)
8E
8F#
=50
8E
8r
==
*-
!!!CNT: Choctaw
!!!TXO: Choctaw
!!!OCY: United States
!!!OCL: Frances Densmore
!!!YOR: Frances Densmore, "Choctaw Music"
!!!YOR: Bulletin 136, page 126, No. 4
!!!PPR: Smithsonian Institution, Bureau of American Ethnology
!!!PPR: Government Printing Office
!!!PDT: 1943
!!!PPP: Washington, DC, United States of America
!!!YEC: Electronic Copyright 2000 David Huron
!!!YER: August 2000
!!!YEN: United States of America
!!!ENC: David Huron
!!!RDT: August 27, 2000
!!!EEV: Release 1.0
!!!AIN: vox
